svg/envelope-open-f.svg

<svg xmlns="http://www.w3.org/2000/svg" viewBox="0 0 64 65" enable-background="new 0 0 64 65"><style type="text/css">.st0{fill:#333333;}</style><title>envelope-open-f</title><desc>Created with Sketch.</desc><path class="st0" d="M0 26.5v33.3l20.5-15.9zM61.8 21.9l-27.4-21.1c-1.3-1-3.4-1-4.7 0l-27.5 21.1 29.8 24.7 29.8-24.7zM32.8 53c-.4.3-1.1.4-1.5 0l-7.5-6.3-21.8 16.8c.6.3 1.3.5 2 .5h56c.7 0 1.4-.2 2-.5l-21.8-16.8-7.4 6.3zM43.5 43.9l20.5 15.9v-33.3z"/></svg>

<svg xmlns="http://www.w3.org/2000/svg" viewBox="0 0 64 65"><path d="M0 26.5v33.3l20.5-15.9zm61.8-4.6L34.4.8c-1.3-1-3.4-1-4.7 0L2.2 21.9 32 46.6l29.8-24.7zM32.8 53c-.4.3-1.1.4-1.5 0l-7.5-6.3L2 63.5c.6.3 1.3.5 2 .5h56c.7 0 1.4-.2 2-.5L40.2 46.7 32.8 53zm10.7-9.1L64 59.8V26.5z" fill="#333"/></svg>
